images/facebook.svg

<svg width="30" height="30" viewBox="0 0 30 30" fill="none" xmlns="http://www.w3.org/2000/svg">
<path d="M30 15C30 22.4862 24.5075 28.6925 17.3375 29.8187V19.365H20.8237L21.4875 15.04H17.3375V12.2337C17.3375 11.05 17.9175 9.8975 19.775 9.8975H21.6613V6.215C21.6613 6.215 19.9487 5.9225 18.3125 5.9225C14.895 5.9225 12.6625 7.99375 12.6625 11.7425V15.0387H8.86375V19.3638H12.6625V29.8175C5.49375 28.69 0 22.485 0 15C0 6.71625 6.71625 0 15 0C23.2838 0 30 6.715 30 15Z" fill="white"/>
</svg>

<svg width="30" height="30" fill="none" xmlns="http://www.w3.org/2000/svg"><path d="M30 15c0 7.486-5.492 13.692-12.663 14.819V19.365h3.487l.663-4.325h-4.15v-2.806c0-1.184.58-2.336 2.438-2.336h1.886V6.215s-1.712-.292-3.349-.292c-3.417 0-5.65 2.07-5.65 5.82v3.296H8.864v4.325h3.798v10.453C5.494 28.69 0 22.485 0 15 0 6.716 6.716 0 15 0c8.284 0 15 6.715 15 15Z" fill="#fff"/></svg>
